X: 18574
T: I Ne'er Shall Wean Her
R: jig
M: 6/8
K: Aminor
|:GF|EGG GED|EGG c2B|BAA AGA|cde egd|
cde g2a|ged c2d|eag ged|cAA A:|
|:cd|egg ged|egg ged|eaa aga|bag a2d|
cde g2a|ged c2d|eag ged|cAA A:|

